X:1
T:Czerny - The Art Oof Finger Dexterity
T:Czerny - The Art Of Finger Dexterity
T:4. Light Motion in quiet Staccato.
T:C.Czerny, Op. 740, Book 1
T:--
C:C.Czerny, Op. 740, Book 1
Z:--
%%score { ( 1 3 ) | ( 2 4 ) }
L:1/8
Q:1/4=100
M:6/8
K:Bb
V:1 treble nm="Piano" snm="Pno."
V:3 treble 
V:2 bass 
V:4 bass 
V:1
"Bb" [Bd]/F/[ce]/F/[df]/F/"F7" [ce]/F/[Bd]/F/[Ac]/F/ | %1
"Bb" [Bd]/F/[ce]/F/[df]/F/"F7" [ce]/F/[Bd]/F/[Ac]/F/ | %2
"Bb" d/B/[ce]/B/[df]/B/"Eb" [eg]/B/[fa]/B/[gb]/B/ | %3
 [gb]/B/[fa]/B/[eg]/B/"Bb" [df]/F/[ce]/F/[Bd]/F/ | [df]/F/[ce]/F/[Bd]/F/"F7"{/=B} c3 | %5
"F7"{/=B} c3{/B} c3 |"F7" e3 edc |"F7" G/F/G/F/G/F/ G/F/G/F/G/F/ || %8
"Bb" .[Dd].[Ee].[Ff]"F7" .[Ee].[Dd].[Cc] |"Bb" .[Dd].[Ee].[Ff]"F7" .[Ee].[Dd].[Cc] | %10
"Bb" .[Dd].[Ee].[Ff]"Eb" .[Gg].[Aa].[Bb]- | .[Bb].[Aa].[Gg]"Bb" .[Ff].[Ee].[Dd] | %12
 [Ff][Ee][Dd]"F7"{/=B} !>![CFc]3 |{/=B} !>![CFc]3{/B} !>![CFc]3 | %14
 .[Ge].[Fd].[Ec]"Bb"{/A} !>![DFB]3 |{/A} !>![DFB]3{/A} !>![DFB]3 || %16
"Bb" [B,D]/F,/[CE]/F,/[DF]/F,/"F7" [CE]/F,/[B,D]/F,/[A,C]/F,/ | %17
"Bb" D/B,/[CE]/B,/[DF]/B,/"D7" ^F/D/[=EG]/D/[FA]/D/ | %18
 [GB]/"Gm"D/[Ac]/D/[Bd]/D/"D7" [Ac]/D/[GB]/D/[^FA]/D/ | %19
"Gm" B/G/[Ac]/G/[Bd]/G/"C7" =e/c/[df]/c/[eg]/c/ | %20
"F" [fa]/c/[gb]/c/[ac']/c/"C7" [gb]/c/[fa]/c/[=eg]/c/ | %21
"F" [fa]/c/[gb]/c/[ac']/c/"C7" [gb]/c/[fa]/c/[=eg]/c/ | %22
"Fm" [f_a]/c/[gb]/c/[ac']/c/"C7" [gb]/c/[fa]/c/[=eg]/c/ | %23
"Fm" _a/f/[gb]/f/[ac']/f/"Ab7"!8va(! c'/a/[b_d']/a/[c'e']/a/ | %24
"Db" [_d'f']/_a/[e'_g']/a/[f'_a']/a/"Ab7" [e'g']/a/[d'f']/a/[e'g']/a/ | %25
"Db" [_d'f']/_a/[e'_g']/a/[f'_a']/a/"Ab7" [e'g']/a/[d'f']/a/[e'g']/a/ | %26
"Db" [_d'f']/_a/[e'_g']/a/[f'_a']/a/"C??" [f'=a']/=a/[f'^g']/^g/[f'a']/a/ | %27
"C??" [f'b']/b/[f'a']/b/[f'b']/b/ [f'=b']/=b/[f'_b']/_b/[f'=b']/=b/ | %28
"C" [c'=e'=g'c'']3"F/A"{/c'} c''"C7/G"[bb']"F"[aa'] | %29
"C7/E"{/g} g'"C__"[ff']"C__"[=e=e']!8va)!"C__"{/d} d'[cc'][Bb] | %30
"C__"{/A} a[Gg][Ff]"C__"{/=E} =e[Dd][Ee] |"C__" [Ff][Gg][^G^g]"C__" [Aa][Bb][=B=b] | %32
"C" [c=e=gc']3"F/A"!8va(!{/c'} c''"C_"[bb']"C_"[aa'] | %33
"C__"{/g} g'[ff'][=e=e']!8va)!"C__"{/d} d'[cc'][Bb] |"C__"{/A} a[Gg][Ff]"C7"{/=E} =e[Dd][Ee] | %35
"F" [Ff][Gg][^G^g]"C__" [Aa][Bb][=B=b] |"C" [c=e=gc']3"C7" [_b=e']/g/[bd']/g/[be']/g/ | %37
"F/C" [af']/f/[a=e']/f/[ad']/f/"C7" [=eb]/c'/[db]/c'/[eb]/c'/ | %38
"F/C" [fa]/c'/[=ea]/c'/[da]/c'/"C7" [b=e']/g/[bd']/g/[be']/g/ | %39
"F/C" [af']/f/[a=e']/f/[ad']/f/"C7" [=eb]/c'/[db]/c'/[eb]/c'/ | %40
"F/C" [fa]/c'/[=ea]/c'/[da]/c'/"C7" [b=e']/g/[bd']/g/[be']/g/ | %41
"Db" [_af']/f/[a_e']/f/[f_d']/f/"Adim" [_gc']/_e/[g=b]/e/[gc']/e/ | %42
"Bbm" [f_d']/_d/[fc']/d/[f_b]/d/"F7" [e=a]/c/[e^g]/c/[ea]/c/ | %43
"Bbm" [fb]/B/[fa]/A/[fb]/B/ [f=b]/=B/[f_b]/_B/[f=b]/=B/ | %44
"F/C" [=ac']/c/[g_b]/c/[fa]/c/ [ac']/c/[gb]/c/[fa]/c/ | %45
"C7" [Bg]/G/[Bf]/G/[B=e]/G/ [Bg]/G/[Bf]/G/[Be]/G/ ||"F" [Af] (A/c/f/a/ c')!8va(! (a/c'/f'/a'/ | %47
 c'')!8va)! f/a/c'/f'/ a' c/f/a/c'/ |"Db" f'[=e=e'][ff'] [^f^f'][gg'][=f=f'] | %49
"C7"{/=e} =e'{/d}=d'{/c}c'{/B} b{/A}a{/G}g |"F" [Af] (A/c/f/a/ c')!8va(! (a/c'/f'/a'/ | %51
 c'')!8va)! f/a/c'/f'/ a' c/f/a/c'/ |"Db" f'[=e=e'][ff'] [^f^f'][gg'][=f=f'] | %53
"C7"{/=e} =e'{/d}=d'{/c}c'{/B} b{/A}a{/G}g |"F"{/F} f z!8va(! [f'f''] [f'f''] z [ff'] | %55
"C__" [ff'] z [f'f''] [f'f''] z [ff'] |"C__" [ff'] z [f'f''] [f'f''] z [ff'] | %57
"C__" [ff'] z [f'f''] [f'f''] z [ff'] |"C__" [ff'] z [ff'] [f'f''] z [ff'] | %59
 [f'f''] z [ff'] [f'f''] z [ff'] |"F7" [f'f''] e''/d''/f''/e''/ d''/c''/b'/a'/g'/f'/!8va)! | %61
 e'/d'/c'/b/a/g/ f/=e/g/f/_e/c/ |"Bb" [Bd]/F/[ce]/F/[df]/F/"F7" [ce]/F/[Bd]/F/[Ac]/F/ | %63
"Bb" [Bd]/F/[ce]/F/[df]/F/"F7" [ce]/F/[Bd]/F/[Ac]/F/ | %64
"Bb" d/B/[ce]/B/[df]/B/"Eb" [eg]/B/[fa]/B/[gb]/B/ | %65
 [gb]/B/[fa]/B/[eg]/B/"Bb" [df]/F/[ce]/F/[Bd]/F/ | [df]/F/[ce]/F/[Bd]/F/"F7"{/=B} c3 | %67
"F7"{/=B} c3{/B} c3 |"F7" e3 edc |"F7" G/F/G/F/G/F/ G/F/G/F/G/F/ | %70
"Bb" .[Dd].[Ee].[Ff]"F7" .[Ee].[Dd].[Cc] |"Bb" .[Dd].[Ee].[Ff]"F7" .[Ee].[Dd].[Cc] | %72
"Bb" .[Dd].[Ee].[Ff]"Eb" .[Gg].[Aa].[Bb]- | .[Bb].[Aa].[Gg]"Bb" .[Ff].[Ee].[Dd] | %74
 [Ff][Ee][Dd]"F7"{/=B} !>![CFc]3 |{/=B} !>![CFc]3{/B} !>![CFc]3 | %76
 .[Ge].[Fd].[Ec]"Bb"{/A} !>![DFB]3 |{/A} !>![DFB]3{/A} !>![DFB]3 || %78
"Bb" [B,D]/F,/[CE]/F,/[DF]/F,/"F7" [CE]/F,/[B,D]/F,/[A,C]/F,/ | %79
"Bb" D/B,/[CE]/B,/[DF]/B,/"Bb7" [DF]/B,/[EG]/B,/[F_A]/B,/ | %80
"Eb" G/B,/[F_A]/B,/[GB]/B,/"Bb7" [FA]/B,/[EG]/B,/[DF]/B,/ | %81
"Eb" G/E/[F_A]/E/[GB]/E/"G7" =B/G/[=Ac]/G/[Bd]/G/ | %82
"Cm" [ce]/G/[df]/G/[eg]/G/"G7" [df]/G/[ce]/G/[=Bd]/G/ | %83
"Cm" [ce]/G/[df]/G/[eg]/G/"Adim" [eg]/F/[df]/F/[ce]/F/ | %84
"Bb" [Bd]/F/[ce]/F/[df]/F/"Eb" [Gc]/E/[Gd]/E/[Ge]/E/ | %85
"Bb/F" [FB]/D/[Fd]/D/[FB]/D/"F7" [EA]/C/[EG]/C/[EA]/C/ || %86
"Bb" [Bd]/F/[ce]/F/[df]/F/"F7" [ce]/F/[Bd]/F/[Ac]/F/ | %87
"Bb" [Bd]/F/[ce]/F/[df]/F/"G7" [df]/G/[ce]/G/[=Bd]/G/ | %88
"Cm" [ce]/G/[df]/G/[eg]/G/"G7" [df]/G/[ce]/G/[=Bd]/G/ | %89
"Cm" [ce]/G/[df]/G/[eg]/G/"A7" [=eg]/A/[df]/A/[^ce]/A/ | %90
"Dm" [df]/A/[=eg]/A/[fa]/A/"A7" [eg]/A/[df]/A/[^ce]/A/ | %91
"Dm" [df]/A/[=eg]/A/[fa]/A/"F7/C" [a_e']/f/[af']/f/[ae']/f/ | %92
"Bb" [bd']/f/[be']/f/[bd']/f/"Eb" [gc']/e/[gd']/e/[gc']/e/ | %93
"Bb/F" [fb]/d/[fc']/d/[fb]/d/"F7" [ea]/c/[eg]/c/[ea]/c/ ||"Bb" [Bdb]3{/=e} [Fdf]3 | %95
"F7/Eb"{/=e} [Fcf]3"Bb/D"{/e} [FBf]3 |"F7/C"{/e} [FAf]3"F7" [c'_e']/f/[c'f']/f/[c'e']/f/ | %97
"F7" [ac']/e/[ad']/e/[ac']/e/ [ea]/c/[eb]/c/[ea]/c/ |"Bb" [Bdb]3{/=e} [Fdf]3 | %99
"F7/Eb"{/=e} [Fcf]3"Bb/D"{/e} [FBf]3 |"F7/C"{/=e} [FAf]3"F7" [c'_e']/f/[c'f']/f/[c'e']/f/ | %101
"F7" [ac']/e/[ad']/e/[ac']/e/ [ea]/c/[eb]/c/[ea]/c/ ||"Bb" ([Bdb]e)[Ff]"F7" [Ff]3 | %103
"Bb" ([dd'][ee'][ff'])"F7" ([Aa][Gg][Aa]) |"Bb" ([Bdb]e)[Ff]"F7" [Ff]3 | %105
"Bb" ([dd'][ee'][ff'])"F7" ([Aa][Gg][Aa]) |"Bb" [Bb] F,/B,/D/F/ B/F/d/B/F/D/ | %107
"Bb" B,/F,/B,/D/F/B/ d/B/f/d/B/F/ |"Bb" D/B,/D/F/B/d/ f/d/b/f/d/B/ | %109
"Bb" F/D/F/B/d/f/ b/f/d'/b/f/d/ |"Bb" B/F/B/d/f/b/!8va(! d'/b/f'/d'/b/f/ | %111
"Bb" f'/d'/b'/f'/d'/b/ b'/f'/d''/b'/f'/d'/ |"Bb" f''!8va)! z z"F7" [Acefa] z2 | %113
"Bb" [Bdfb] z z z2 z |] %114
V:2
 .[B,,B,] z z z2 .[F,,F,] | .[B,,B,] z z z2 .[F,,F,] | .[B,,B,] z z z2 .[E,,E,]- | %3
 [E,,E,]2 .[G,,G,] [B,,B,]3- | [B,,B,]2 .D, !>![F,C]3 | !>![F,C]3 !>![F,C]3 | %6
 [CE]3- [CE][B,D][F,C] | [CE][B,D][F,C] [C,E,][B,,D,][F,,A,,] || %8
 B,,/F,/C,/F,/D,/F,/ C,/F,/B,,/F,/F,,/F,/ | B,,/F,/C,/F,/D,/F,/ C,/F,/B,,/F,/F,,/F,/ | %10
 B,,/B,/C,/B,/D,/B,/ E,/B,/F,/B,/G,/B,/ | G,/B,/F,/B,/E,/B,/ D,/F,/C,/F,/B,,/F,/ | %12
 D,/F,/C,/F,/B,,/F,/ F,,/F,/A,,/F,/E,/F,/ | F,,/F,/A,,/F,/E,/F,/ F,,/F,/A,,/F,/E,/F,/ | %14
 F,,,/F,,/G,,,/G,,/A,,,/F,,/ B,,,/B,,/F,,/B,,/D,,/B,,/ | %15
 B,,,/B,,/F,,/B,,/D,,/B,,/ B,,,/B,,/F,,/B,,/D,,/B,,/ || B,,, z z z2 [F,,,F,,] | %17
 [B,,,B,,] z z [D,,D,] z z | [G,,G,] z z z2 [D,,D,] | [G,,G,] z z [C,C] z z | %20
 [F,F] z[K:treble] c' c' z[K:bass] [C,C] | [F,F] z[K:treble] c' c' z[K:bass] [C,C] | %22
 [F,F] z[K:treble] c' c' z[K:bass] [C,C] | [F,F]3 [_A,,_A,]3 | %24
 [_D,_D] z[K:treble] _A A z[K:bass] [_A,,_A,] | [_D,_D] z[K:treble] _A A z[K:bass] [_A,,_A,] | %26
 [_D,_D]3 [D,F,D]3 | [_D,F,_D]3 [D,F,D]3 | C,/=E,/G,/C/=E/G/[K:treble] =A/c/G/c/F/c/ | %29
 =E/c/D/c/C/c/[K:bass] B,/C/A,/C/G,/C/ | F,/C/=E,/C/D,/C/ C,/C/=B,/C/_B,/C/ | %31
 A,/C/G,/C/F,/C/ _E,/F,/D,/F,/_D,/F,/ | C,/=E,/G,/C/=E/G/[K:treble] A/c/G/c/F/c/ | %33
 =E/c/D/c/C/c/[K:bass] B,/C/A,/C/G,/C/ | F,/C/=E,/C/D,/C/ C,/C/=B,/C/_B,/C/ | %35
 A,/C/G,/C/F,/C/ _E,/F,/D,/F,/_D,/F,/ | C,/=E,/G,/C/=E/G/[K:treble] cCc | C3[K:bass] C,CC, | %38
 C3[K:treble] cCc | C3[K:bass] C,CC, | C3[K:treble] cCc | _D_dD =A=A,A | B,BB,[K:bass] FF,F | %43
 _D,_DD, DD,D |{/C,} [C,C]3{/C,,} [C,,C,]3 |{/C,,} [C,,C,]3{/C,,} [C,,C,]3 || F,3 F,3 | F,3 F,3 | %48
 _D,6 | C,3 C,3 | F,3 F,3 | F,3 F,3 | _D,6 | C,3 C,3 | %54
 [F,A,]/F/[G,B,]/F/[A,C]/F/ [A,C]/F/[G,B,]/F/[F,A,]/F/ | %55
 [G,B,]/F/[A,C]/F/[B,D]/F/ [B,D]/F/[A,C]/F/[^G,=B,]/F/ | %56
 [A,C]/F/[_B,D]/F/[CE]/F/ [CE]/F/[G,B,]/F/[A,^C]/F/ | [B,D]/F/[CE]/F/D/F/ D/F/[CE]/F/[=B,D]/F/ | %58
 [CE]/F/[=B,D]/F/[CE]/F/ [B,D]/F/[CE]/F/[B,D]/F/ | %59
 [CE]/F/[=B,D]/F/[CE]/F/ [B,D]/F/[CE]/F/[B,D]/F/ | [CE] z z4 | z6 | .[B,,B,] z z z2 .[F,,F,] | %63
 .[B,,B,] z z z2 .[F,,F,] | .[B,,B,] z z z2 .[E,,E,]- | [E,,E,]2 .[G,,G,] [B,,B,]3- | %66
 [B,,B,]2 .D, !>![F,C]3 | !>![F,C]3 !>![F,C]3 | [CE]3- [CE][B,D][F,C] | %69
 [CE][B,D][F,C] [C,E,][B,,D,][F,,A,,] | B,,/F,/C,/F,/D,/F,/ C,/F,/B,,/F,/F,,/F,/ | %71
 B,,/F,/C,/F,/D,/F,/ C,/F,/B,,/F,/F,,/F,/ | B,,/B,/C,/B,/D,/B,/ E,/B,/F,/B,/G,/B,/ | %73
 G,/B,/F,/B,/E,/B,/ D,/F,/C,/F,/B,,/F,/ | D,/F,/C,/F,/B,,/F,/ F,,/F,/A,,/F,/E,/F,/ | %75
 F,,/F,/A,,/F,/E,/F,/ F,,/F,/A,,/F,/E,/F,/ | %76
 F,,,/F,,/G,,,/G,,/A,,,/F,,/ B,,,/B,,/F,,/B,,/D,,/B,,/ | %77
 B,,,/B,,/F,,/B,,/D,,/B,,/ B,,,/B,,/F,,/B,,/D,,/B,,/ || .B,,, z z z2 .[F,,,F,,] | %79
 .[B,,,B,,] z z .[B,,,B,,] z z | .[E,,E,] z z z2 .[B,,,B,,] | .[E,,E,] z z [G,,,G,,] z z | %82
 .[C,,C,] z z z2 .[G,,,G,,] | .[C,,C,] z z [=A,,,=A,,] z z | [B,,,B,,] z z [E,,E,] z z | %85
 [F,,F,] z z [F,,,F,,] z z || [B,,B,] z[K:treble] f f z[K:bass] [F,,F,] | %87
 [B,,B,] z z [G,,,G,,] z z | [C,,C,] z[K:treble] g g z[K:bass] [G,,G,] | [C,C] z z [A,,,A,,] z z | %90
 [D,,D,] z[K:treble] a a z[K:bass] [A,,A,] | [D,D] z z [=C,F,=C]3 | [B,,F,B,] z z [E,,E,] z z | %93
 [F,,F,] z z [F,F] z z || B,,/D/F,/D/B,/D/ B,,/D/F,/D/B,/D/ | E,3 D,3 | C,3 !arpeggio![F,,,F,,]3 | %97
 !arpeggio![F,,,F,,]3 !arpeggio![F,,F,]3 | B,,/D/F,/D/B,/D/ B,,/D/F,/D/B,/D/ | E,3 D,3 | %100
 C,3 !arpeggio![F,,,F,,]3 | !arpeggio![F,,,F,,]3 !arpeggio![F,,F,]3 || %102
 B,,/F,/C,/F,/D,/F,/ C,/F,/B,,/F,/A,,/F,/ | B,,/F,/C,/F,/D,/F,/ F,,/F,/E,/F,/C,/F,/ | %104
 B,,/F,/C,/F,/D,/F,/ C,/F,/B,,/F,/A,,/F,/ | B,,/F,/C,/F,/D,/F,/ F,,/F,/E,/F,/C,/F,/ | %106
 [B,,,D,,F,,B,,]3 [B,,,D,,F,,B,,]3 | [B,,,D,,F,,B,,]3 [B,,,D,,F,,B,,]3 | %108
 [B,,,D,,F,,B,,]3 [B,,,D,,F,,B,,]3 | [B,,,D,,F,,B,,]3 [B,,,D,,F,,B,,]3 | %110
 [B,,,D,,F,,B,,]3 [F,,B,,D,F,]3 | [D,,F,,B,,D,]3 [B,,,D,,F,,B,,]3 | %112
 [F,,,B,,,D,,F,,] z z [F,,A,,C,F,] z2 | [B,,,D,,F,,B,,] z z z2 z |] %114
V:3
 x6 | x6 | x6 | x6 | x3 A/F/A/F/A/F/ | A/F/A/F/A/F/ A/F/A/F/A/F/ | c/F/c/F/c/F/ c/F/B/F/A/F/ | %7
 x6 || x6 | x6 | x6 | x6 | x6 | x6 | x6 | x6 || x6 | x6 | x6 | x6 | x6 | x6 | x6 | x3!8va(! x3 | %24
 x6 | x6 | x6 | x6 | x6 | x3!8va)! x3 | x6 | x6 | x3!8va(! x3 | x3!8va)! x3 | x6 | x6 | x6 | x6 | %38
 x6 | x6 | x6 | x6 | x6 | x6 | x6 | x6 || x4!8va(! x2 | x!8va)! x5 | x6 | x6 | x4!8va(! x2 | %51
 x!8va)! x5 | x6 | x6 | x2!8va(! x4 | x6 | x6 | x6 | x6 | x6 | x6!8va)! | x6 | x6 | x6 | x6 | x6 | %66
 x3 A/F/A/F/A/F/ | A/F/A/F/A/F/ A/F/A/F/A/F/ | c/F/c/F/c/F/ c/F/B/F/A/F/ | x6 | x6 | x6 | x6 | x6 | %74
 x6 | x6 | x6 | x6 || x6 | x6 | x6 | x6 | x6 | x6 | x6 | x6 || x6 | x6 | x6 | x6 | x6 | x6 | x6 | %93
 x6 || x6 | x6 | x6 | x6 | x6 | x6 | x6 | x6 || x3 (edc) | x6 | x3 (edc) | x6 | x6 | x6 | x6 | x6 | %110
 x3!8va(! x3 | x6 | x!8va)! x5 | x6 |] %114
V:4
 x6 | x6 | x6 | x6 | x6 | x6 | x6 | x6 || x6 | x6 | x6 | x6 | x3 F,,2 z | F,,2 x F,,2 x | x6 | %15
 x6 || x6 | x6 | x6 | x6 | x2[K:treble] x3[K:bass] x | x2[K:treble] x3[K:bass] x | %22
 x2[K:treble] x3[K:bass] x | x6 | x2[K:treble] x3[K:bass] x | x2[K:treble] x3[K:bass] x | x6 | x6 | %28
 x3[K:treble] x3 | x3[K:bass] x3 | x6 | x6 | x3[K:treble] x3 | x3[K:bass] x3 | x6 | x6 | %36
 x3[K:treble] x3 | x3[K:bass] x3 | x3[K:treble] x3 | x3[K:bass] x3 | x3[K:treble] x3 | x6 | %42
 x3[K:bass] x3 | x6 | x6 | x6 || F,/F/C/F/A,/F/ F,/F/C/F/A,/F/ | F,/F/C/F/A,/F/ F,/F/C/F/A,/F/ | %48
 _D,/_D/G,/D/B,/D/ G,/D/B,/D/F,/D/ | C,/C/G,/C/B,/C/ C,/C/=E,/C/B,/C/ | %50
 F,/F/C/F/A,/F/ F,/F/C/F/A,/F/ | F,/F/C/F/A,/F/ F,/F/C/F/A,/F/ | %52
 _D,/_D/G,/D/B,/D/ G,/D/B,/D/F,/D/ | C,/C/G,/C/B,/C/ C,/C/=E,/C/B,/C/ | x6 | x6 | x6 | x6 | x6 | %59
 x6 | x6 | x6 | x6 | x6 | x6 | x6 | x6 | x6 | x6 | x6 | x6 | x6 | x6 | x6 | x3 F,,2 z | %75
 F,,2 x F,,2 x | x6 | x6 || x6 | x6 | x6 | x6 | x6 | x6 | x6 | x6 || x2[K:treble] x3[K:bass] x | %87
 x6 | x2[K:treble] x3[K:bass] x | x6 | x2[K:treble] x3[K:bass] x | x6 | x6 | x6 || x6 | %95
 E,/C/F,/C/A,/C/ D,/B,/F,/B,/D,/B,/ | C,/A,/E,/A,/F,/A,/ x z2 | x6 | x6 | %99
 E,/C/F,/C/A,/C/ D,/B,/F,/B,/D,/B,/ | C,/A,/E,/A,/F,/A,/ x z2 | x6 || x6 | x6 | x6 | x6 | x6 | x6 | %108
 x6 | x6 | x6 | x6 | x6 | x6 |] %114

